X: 185
T: Song of the Buffalo Hunt (a)
C: Teton Sioux band 1911-1914
N: Derived from sioux180.krn
O: South Dakota, U.S.A.
N: Teton Sioux Music by Frances Densmore, 1918
Z: transcribed to **kern format by Craig Sapp
L: 1/8
M: 3/4
Q: 1/4=58
K: Eb clef=bass
%%linebreak <none>
E/ C/ C-C2C E ||  
[M:2/4]E> CC2 | 
C< CC2 ||  
[M:3/4]E/ C/ C-C2C C ||  
[M:2/4]B, G,B,2 | 
G,2G, G, ||  
[M:3/4]C B,C4 ||  
[M:2/4]B,/ B,/ B, B,/ G,3/ | 
B,> G,G,2 :|]  



